X:308
T:Haste to the Wedding
R:Jig
B:Sharp - Morris Dance Tunes
M:6/8
L:1/8
K:D
DFA A2f|ede fdB|ABA AGF|GFG E2F|DFA A2f|ede fdB|AFA faf|ded d3:|
|:afa agf|gfg bag|fga agf|gfg efg|a3 f3|ede fdB|AFA faf|ded d3:|

